!!!COM: Mozart	
!!!OTL: Zehn Variationen in G, uber die Ariette 'Unser dummer Pobel meint' aus dem Singspiel 'Die Pilgrime von Mekka'
!!!Variation: Variation 10 c
!!!COM: Mozart
**function	**harm	**kern	**kern
*M3/8	*M3/8	*staff2	*staff1
*G:	*G:	*clefF4	*clefG2
*tb16	*	*k[f#]	*k[f#]
*	*	*met(c|)	*met(c|)
*	*	*M3/8	*M3/8
*	*	*G:	*G:
=-	=-	=-	=-
4.T	4.I	8bL 8dd 8gg	16GLL
.	.	.	16g
.	.	8gg	16f#
.	.	.	16g
.	.	16bbL	16G
.	.	16ggJJ	16gJJ
=	=	=225	=225
4.T	4.V6	8ff#L	16F#LL
.	.	.	16f#
.	.	8ff#	16e
.	.	.	16f#
.	.	16aaL	16F#
.	.	16ff#JJ	16f#JJ
=	=	=226	=226
4.T	4.vi	8eeL	16ELL
.	.	.	16e
.	.	8ee	16d#
.	.	.	16e
.	.	16ggL	16E
.	.	16eeJJ	16eJJ
=	=	=227	=227
4T	4V	4dd	16DLL
.	.	.	16d
.	.	.	16F#
.	.	.	16f#
8T	8viio/ii	[8ddd	16G#
.	.	.	16g#JJ
=	=	=228	=228
4T	4V/V	(8dddL]	16ALL
.	.	.	16a
.	.	8ccc#)	16E
.	.	.	16e
8T	8viio	[8cccJ	16F#
.	.	.	16f#JJ
=	=	=229	=229
4T	4I	(8cccL]	16GLL
.	.	.	16g
.	.	8bb)	16BB
.	.	.	16B
*	*	*^	*
8P	8V65/V	16aaL	8r	16C#
.	.	16ggJJ	.	16c#JJ
=	=	=230	=230	=230
4D	4I64	(4gg	4b	8DL 8d
.	.	.	.	8D 8d
8D	8V7	16bbLL	8cc	8DJ 8d
.	.	16aaJJ)	.	.
=	=	=231	=231	=231
4.T	4.I	8gg	8b	8GL
.	.	8r	8r	8D
.	.	8r	8r	8GGJ
*	*	*v	*v	*
=	=	=232	=232
*-	*-	*-	*-
